webapp/src/assets/svg/verified-icon.svg

<?xml version="1.0" encoding="UTF-8"?>
<svg width="24px" height="24px" viewBox="0 0 24 24" version="1.1" xmlns="http://www.w3.org/2000/svg" xmlns:xlink="http://www.w3.org/1999/xlink">
    <title>33ADD996-5055-4581-B9CB-E1DB740AD573</title>
    <g id="DeFiChain-App" stroke="none" stroke-width="1" fill="none" fill-rule="evenodd">
        <g id="tokens-dat" transform="translate(-580.000000, -210.000000)">
            <g id="Group-10" transform="translate(56.000000, 38.000000)">
                <g id="Group-8" transform="translate(224.000000, 0.000000)">
                    <g id="Group-2" transform="translate(32.000000, 144.000000)">
                        <g id="verified_badge" transform="translate(268.000000, 28.000000)">
                            <polygon id="Clip-2" points="0 0 24.0001621 0 24.0001621 24 0 24"></polygon>
                            <path d="M17.9348652,3.46226505 L18.7238652,5.00526505 C18.8678652,5.28726505 19.2128652,5.63226505 19.4948652,5.77626505 C19.8708652,5.96826505 20.4228652,6.25026505 21.0368652,6.56426505 C22.1708652,7.14326505 22.7718652,8.59526505 22.3798652,9.80626505 L21.8468652,11.4552651 C21.7488652,11.7552651 21.7488652,12.2442651 21.8468652,12.5442651 C21.9758652,12.9472651 22.1678652,13.5362651 22.3798652,14.1932651 C22.7718652,15.4042651 22.1708652,16.8562651 21.0368652,17.4352651 L19.4948652,18.2232651 C19.2128652,18.3672651 18.8678652,18.7122651 18.7238652,18.9952651 C18.5308652,19.3712651 18.2498652,19.9222651 17.9348652,20.5372651 C17.3558652,21.6702651 15.9048652,22.2722651 14.6928652,21.8792651 L13.0458652,21.3462651 C12.7438652,21.2482651 12.2558652,21.2482651 11.9548652,21.3462651 C11.5528652,21.4762651 10.9638652,21.6672651 10.3068652,21.8792651 C9.09586522,22.2722651 7.64386522,21.6702651 7.06386522,20.5372651 L6.27586522,18.9952651 C6.13286522,18.7122651 5.78786522,18.3682651 5.50586522,18.2232651 C5.12986522,18.0312651 4.57786522,17.7492651 3.96286522,17.4352651 C2.82886522,16.8562651 2.22786522,15.4042651 2.61986522,14.1932651 L3.15286522,12.5452651 C3.25086522,12.2442651 3.25086522,11.7552651 3.15286522,11.4552651 C3.02286522,11.0522651 2.83286522,10.4632651 2.61986522,9.80626505 C2.22786522,8.59526505 2.82886522,7.14326505 3.96286522,6.56426505 L5.50586522,5.77626505 C5.78686522,5.63226505 6.13286522,5.28726505 6.27586522,5.00526505 C6.46886522,4.62926505 6.75086522,4.07826505 7.06386522,3.46226505 C7.64386522,2.32926505 9.09586522,1.72726505 10.3068652,2.12026505 L11.9548652,2.65326505 C12.2558652,2.75026505 12.7438652,2.75026505 13.0448652,2.65326505 C13.4468652,2.52326505 14.0368652,2.33226505 14.6928652,2.12026505 C15.9048652,1.72726505 17.3558652,2.32926505 17.9348652,3.46226505 Z M16,8 L10.51,13.5 L8.5,11.5 L7,13 L10.51,16.5 L17.5,9.5 L16,8 Z" id="Combined-Shape" fill="#02B31B"></path>
                        </g>
                    </g>
                </g>
            </g>
        </g>
    </g>
</svg>

<svg height="24" viewBox="0 0 24 24" width="24" xmlns="http://www.w3.org/2000/svg"><g fill="none" fill-rule="evenodd"><path d="m0 0h24.0001621v24h-24.0001621z"/><path d="m17.9348652 3.46226505.789 1.543c.144.282.489.627.771.771.376.192.928.474 1.542.788 1.134.579 1.735 2.031 1.343 3.242l-.533 1.64900005c-.098.3-.098.789 0 1.089.129.403.321.992.533 1.649.392 1.211-.209 2.663-1.343 3.242l-1.542.788c-.282.144-.627.489-.771.772-.193.376-.474.927-.789 1.542-.579 1.133-2.03 1.735-3.242 1.342l-1.647-.533c-.302-.098-.79-.098-1.091 0-.402.13-.991.321-1.648.533-1.21099998.393-2.66299998-.209-3.24299998-1.342l-.788-1.542c-.143-.283-.488-.627-.77-.772-.376-.192-.928-.474-1.543-.788-1.134-.579-1.735-2.031-1.343-3.242l.533-1.648c.098-.301.098-.79 0-1.09-.13-.403-.32-.992-.533-1.64900005-.392-1.211.209-2.663 1.343-3.242l1.543-.788c.281-.144.627-.489.77-.771.193-.376.475-.927.788-1.543.58-1.133 2.032-1.735 3.24299998-1.342l1.648.533c.301.097.789.097 1.09 0 .402-.13.992-.321 1.648-.533 1.212-.393 2.663.209 3.242 1.342zm-1.9348652 4.53773495-5.49 5.5-2.01-2-1.5 1.5 3.51 3.5 6.99-7z" fill="#02b31b"/></g></svg>
